X: 43260
T: Woman Of The House, The
R: reel
M: 4/4
K: Gmajor
|:DBBA B2BA|GABd eBdB|A~E3 ABcd|e~B3 eBdB|
DBBA BcBA|GABd eBdB|GABG ~A3A|1 BGAG EFGE:|2 BGAG EFGB||
|:(f~f3) edBd|egfd edBd|f2df edBd|eaag abag|
~f3d edBd|gage dBBA|~G3B A2GA|1 BGAG EFGB:|2 BGAG EFGE||

